X:355
T:
R:polska
S:Efter L. Lagergren, Likmide i Hemse, »Florsen» m. fl.
O:Gotland
M:3/4
L:1/16
K:Dm
ded^c d2A2 D2a2|abag fgfe d4|ded^c d2A2 D2A2|ABAG FGFE D4|A2^ce A2df A2a2|
afed ea^ga A3 ^c|e2ee e2^cA AGE^C|A,^CEG .G2 .F2 .E2 .D2|[DA]d^cd fd^cd ad^cd|
AGFE E4 D4::[FAf]efg f2c2 A2B2|cdcB ABGA F4|[Fc]afd c4 TB4|AcAG .G2 .F2 .E2 .D2|
ddAd ddAa d4|f2ed fed^c d4|^d2e2 e2^cA AGE^C|A,^CEG .G2 .F2 .E2 .D2|[DA]d^cd fd^cd ad^cd|
AGFE E4 D4:|

